X:1
T:Title
L:1/8
Q:1/4=100
M:4/4
K:Eb
V:1 treble nm="Grand Piano"
V:1
 G2 G_G =G2 G_G | G_GED ED C2- | C B,2 C D2 D2 | G2 FE D4 | CB,CD E2 DE | _G2 EF =G2 G2 | %6
w: ????~????~???? * * * * *||||||
 A2 A2 A2 GA | =BAAG G4 | G2 G2 c2 cB | BAAB A2 G2 | E2 EF G2 G2 | BAGA G2 F2 | E2 ED EDCC | %13
w: |||||||
 F2 FG AG F2 | G2 GA =B2 GG | G2 A2 =B2 c2 |] %16
w: |||

